X: 14
T: Captain Campbell
R: strathspey
M: 4/4
L: 1/8
K: Amin
A>G|E<AA>B c>AB<G|D<GG>A B>d c/B/A/G/|E<AA>B c>Bc<e|1d<Bg>B A/A/A:|2d<Bg>B A/A/A A>B||
A<aa>g e>dc<e|d<eg>e d/c/B/A/ G>B|A<aa>g e>dc<e|d<Bg>B A/A/A A>B|
A<aa>g e>dc<e|d<eg>e d/c/B/A/ G>B|c<Ad>B e>dc<e|d<Bg>B A/A/A||


Tune 1557	Setting 14966

